img/svg/facebook.svg

<svg width="20" height="20" viewBox="0 0 20 20" fill="none" xmlns="http://www.w3.org/2000/svg">
<path d="M17.5 0H2.5C1.12125 0 0 1.12125 0 2.5V17.5C0 18.8787 1.12125 20 2.5 20H17.5C18.8787 20 20 18.8787 20 17.5V2.5C20 1.12125 18.8787 0 17.5 0Z" fill="#0075FB"/>
<path d="M16.875 10H13.75V7.5C13.75 6.81 14.31 6.875 15 6.875H16.25V3.75H13.75C11.6788 3.75 10 5.42875 10 7.5V10H7.5V13.125H10V20H13.75V13.125H15.625L16.875 10Z" fill="#FAFAFA"/>
</svg>

<svg width="20" height="20" viewBox="0 0 20 20" fill="none" xmlns="http://www.w3.org/2000/svg"><path d="M17.5 0h-15A2.503 2.503 0 000 2.5v15C0 18.879 1.121 20 2.5 20h15c1.379 0 2.5-1.121 2.5-2.5v-15C20 1.121 18.879 0 17.5 0z" fill="#0075FB"/><path d="M16.875 10H13.75V7.5c0-.69.56-.625 1.25-.625h1.25V3.75h-2.5A3.75 3.75 0 0010 7.5V10H7.5v3.125H10V20h3.75v-6.875h1.875L16.875 10z" fill="#FAFAFA"/></svg>
